X: 1204
T: Maude Miller
M:C|
L:1/8
R:Reel
B:O'Neill's 1204
N:Collected by Delaney
Z:Transcribed by Trish O'Neil
K:D
dcAG FADF| E2(cE) dEcE| dcAG FADF| Dddc dfed|
dcAG FADF| E2(cE) dEcE| dcAG FADF| Dddc d2"End"d2||
fedf efge| afge afge| fedf efge| afge (fd)e2|
fedf efge| afgef2(fg)| afge fdec| Addc df"D.C."ed||


